forest_light.lrtemplate
s = {
	id = "A76FFDE6-31E0-4FF6-AD7D-AF6A9EE830E9",
	internalName = "forest_light",
	title = "forest_light",
	type = "Develop",
	value = {
		settings = {
			Blacks2012 = 48,
			Clarity2012 = 30,
			ColorNoiseReduction = 25,
			ColorNoiseReductionDetail = 50,
			ColorNoiseReductionSmoothness = 50,
			Contrast2012 = 49,
			ConvertToGrayscale = false,
			Dehaze = 15,
			EnableColorAdjustments = true,
			EnableDetail = true,
			EnableEffects = true,
			EnableGradientBasedCorrections = true,
			EnableSplitToning = true,
			Exposure2012 = 0.55,
			GrainAmount = 0,
			GrainFrequency = 50,
			GrainSize = 25,
			Highlights2012 = -60,
			HueAdjustmentAqua = -100,
			HueAdjustmentBlue = 2,
			HueAdjustmentGreen = -35,
			HueAdjustmentMagenta = 0,
			HueAdjustmentOrange = 1,
			HueAdjustmentPurple = -4,
			HueAdjustmentRed = 9,
			HueAdjustmentYellow = -89,
			LuminanceAdjustmentAqua = -13,
			LuminanceAdjustmentBlue = 34,
			LuminanceAdjustmentGreen = 47,
			LuminanceAdjustmentMagenta = 1,
			LuminanceAdjustmentOrange = -7,
			LuminanceAdjustmentPurple = 12,
			LuminanceAdjustmentRed = 0,
			LuminanceAdjustmentYellow = 37,
			LuminanceNoiseReductionContrast = 0,
			LuminanceNoiseReductionDetail = 50,
			LuminanceSmoothing = 0,
			ParametricDarks = 0,
			ParametricHighlightSplit = 75,
			ParametricHighlights = 0,
			ParametricLights = 0,
			ParametricMidtoneSplit = 50,
			ParametricShadowSplit = 25,
			ParametricShadows = 0,
			PostCropVignetteAmount = 0,
			PostCropVignetteFeather = 50,
			PostCropVignetteHighlightContrast = 0,
			PostCropVignetteMidpoint = 50,
			PostCropVignetteRoundness = 0,
			PostCropVignetteStyle = 1,
			ProcessVersion = "6.7",
			Saturation = 24,
			SaturationAdjustmentAqua = -50,
			SaturationAdjustmentBlue = -55,
			SaturationAdjustmentGreen = 35,
			SaturationAdjustmentMagenta = 5,
			SaturationAdjustmentOrange = 0,
			SaturationAdjustmentPurple = 0,
			SaturationAdjustmentRed = 0,
			SaturationAdjustmentYellow = 12,
			Shadows2012 = 47,
			SharpenDetail = 25,
			SharpenEdgeMasking = 0,
			SharpenRadius = 1,
			Sharpness = 35,
			SplitToningBalance = 0,
			SplitToningHighlightHue = 39,
			SplitToningHighlightSaturation = 20,
			SplitToningShadowHue = 312,
			SplitToningShadowSaturation = 2,
			Temperature = 5600,
			Tint = 33,
			ToneCurveName2012 = "Custom",
			ToneCurvePV2012 = {
				14,
				25,
				94,
				110,
				198,
				185,
				255,
				255,
			},
			ToneCurvePV2012Blue = {
				0,
				0,
				255,
				255,
			},
			ToneCurvePV2012Green = {
				0,
				0,
				255,
				255,
			},
			ToneCurvePV2012Red = {
				0,
				0,
				255,
				255,
			},
			Vibrance = 22,
			WhiteBalance = "Custom",
			Whites2012 = 55,
			orientation = "AB",
		},
		uuid = "74BBD78F-6C42-4A38-B01A-B95518A5C073",
	},
	version = 0,
}
